icons/KoraCustom/apps/scalable/com.github.burlog.plasmoid-sysmon.svg

<svg xmlns="http://www.w3.org/2000/svg" width="48" height="48" version="1">
 <circle style="fill:#3f3f3f" cx="24" cy="24" r="19"/>
 <path style="opacity:0.2" d="M 24,5 C 12.92,5 4,13.92 4,25 4,36.08 12.92,45 24,45 35.08,45 44,36.08 44,25 44,13.92 35.08,5 24,5 Z m 0,9 A 11,11 0 0 1 35,25 11,11 0 0 1 24,36 11,11 0 0 1 13,25 11,11 0 0 1 24,14 Z"/>
 <path style="fill:#3d4cbc" d="M 24 4 C 12.92 4 4 12.92 4 24 C 4 35.08 12.92 44 24 44 C 35.08 44 44 35.08 44 24 C 44 12.92 35.08 4 24 4 z M 24 13 A 11 11 0 0 1 35 24 A 11 11 0 0 1 24 35 A 11 11 0 0 1 13 24 A 11 11 0 0 1 24 13 z"/>
 <path style="fill:#37be2d" d="M 31.539062 32 A 11 11 0 0 1 24 35 L 24 44 C 32.230523 44 39.261938 39.07314 42.337891 32 L 31.539062 32 z"/>
 <path style="opacity:0.1;fill:#ffffff" d="M 31.539062 32 A 11 11 0 0 1 30.300781 33 L 41.859375 33 C 42.025093 32.670425 42.190124 32.339789 42.337891 32 L 31.539062 32 z"/>
 <path style="fill:#2c83f5" d="M 34.945312 23 A 11 11 0 0 1 35 24 A 11 11 0 0 1 31.539062 32 L 42.337891 32 C 43.402816 29.551219 44 26.849477 44 24 C 44 23.664236 43.990799 23.331609 43.974609 23 L 34.945312 23 z"/>
 <path style="opacity:0.1;fill:#ffffff" d="M 34.953125 23 C 34.9559 23.033409 34.954429 23.06808 34.957031 23.101562 A 11 11 0 0 1 35 24 L 43.974609 24 C 43.982609 24.164502 43.982008 24.330832 43.986328 24.496094 C 43.990385 24.330504 44 24.166621 44 24 C 44 23.664236 43.990799 23.331609 43.974609 23 L 34.953125 23 z"/>
 <path style="fill:#ffffff;opacity:0.1" d="M 24 4 C 12.92 4 4 12.92 4 24 C 4 24.167874 4.007647 24.333141 4.0117188 24.5 C 4.2763904 13.653863 13.087874 5 24 5 C 34.912126 5 43.72361 13.653863 43.988281 24.5 C 43.992353 24.333141 44 24.167874 44 24 C 44 12.92 35.08 4 24 4 z M 34.978516 24.414062 A 11 11 0 0 1 24 35 A 11 11 0 0 1 13.021484 24.585938 A 11 11 0 0 0 13 25 A 11 11 0 0 0 24 36 A 11 11 0 0 0 35 25 A 11 11 0 0 0 34.978516 24.414062 z"/>
</svg>

<svg clip-rule="evenodd" fill-rule="evenodd" stroke-linejoin="round" stroke-miterlimit="2" viewBox="0 0 48 48" xmlns="http://www.w3.org/2000/svg">
 <linearGradient id="a" x2="1" gradientTransform="matrix(0 -40 40 0 24 44)" gradientUnits="userSpaceOnUse">
  <stop stop-color="#234191" offset="0"/>
  <stop stop-color="#3d4cbc" offset="1"/>
 </linearGradient>
 <circle cx="24" cy="24" r="21.6258" fill="#252525" stroke-width="1.1382"/>
 <g transform="matrix(1.1382 0 0 1.1382 -3.3168 -3.3168)" fill-rule="nonzero">
  <path d="m24 4c-11.08 0-20 8.92-20 20s8.92 20 20 20 20-8.92 20-20-8.92-20-20-20zm0 9c6.034 0 11 4.966 11 11s-4.966 11-11 11-11-4.966-11-11 4.966-11 11-11z" fill="url(#a)"/>
  <path d="m31.539 32c-2.038 1.924-4.736 2.997-7.539 3v9c8.231 0 15.262-4.927 18.338-12z" fill="#37be2d"/>
  <path d="m34.945 23c.034.332.052.666.055 1-.003 3.028-1.256 5.925-3.461 8h10.799c1.065-2.449 1.662-5.151 1.662-8 0-.336-.009-.668-.025-1z" fill="#2c83f5"/>
 </g>
</svg>
